X: 697
T: Yoshke (Tanz, Tanz, Yideleh)
Z: John Chambers <jc@trillian.mit.edu> http://trillian.mit.edu/~jc/music/abc/
O: Trad
M: 4/4
L: 1/8
K: Am
|  "E"EF^GA BcBA | ^G2GE "Am"A4 | "E"B2B2 dcBA | ^G2GE "Am"A4 \
|  "E"EF^GA BcBA | ^G2GE "Am"A4 | "E"^G2G2 "Dm"FEFD | "E"E4 z2 
| "G"[G2B2] \
|  "C"cde4 e2 | "G"dedB G4 | "G7"GABc defd | "C"e2ef "E"edcB \
|  "Am"ABc4 c2 | "E"BcB^G E4 | EF^GA BcBG | "Am"A4 z2 
| ^GF \
|  "E"E2^G2 E2G2 | "Am"A2A2 dcBA | "E"^G2G2 "Am"AGAc | "E"B2B2 ~e4 \
|  "E"E2^G2 E2G2 | "Am"A2A2 dcBA | "E"^G2G2 "Dm"FEFD | "E"E4 z2 
| "G"[G2B] \
|  "C"cde4 e2 | "G"dedB G4 | "G7"GABc defd | "C"e2ef "E"edcB \
|  "Am"ABc4 c2 | "E"BcB^G E4 | EF^GA BcBG | "Am"A4 z2 |]



